!!!COM: Music21
!!!OTL: mazurka_Magherness--The
!!!OMV: mazurka_Magherness--The
**kern
*clefG2
*k[f#c#g#]
*A:
*M3/4
=1
8cc#L
8bJ
8aL
8f#J
16eKL
8.c#J
=
8eL
8f#J
8aL
8cc#J
8eeL
8cc#J
=
16bLL
16cc#J
8ddJ
8cc#L
8aJ
8g#L
8bJ
=
8aL
8f#J
16dKL
8.c#J
8eL
8ddJ
=
8cc#L
8bJ
8aL
8f#J
16eKL
8.c#J
=
8eL
8f#J
8aL
8cc#J
8eeL
8cc#J
!!linebreak:original
=
16ddLL
16cc#J
8bJ
8cc#L
8aJ
8g#L
8eJ
=
8cc#L
8bJ
4.a
8b
=||
*M3/4
8cc#L
8bJ
8aL
8f#J
16eKL
8.c#J
=
8eL
8f#J
8aL
8cc#J
8eeL
8cc#J
=
16bLL
16cc#J
8ddJ
8cc#L
8aJ
8g#L
8bJ
=
8aL
8f#J
16dKL
8.c#J
8eL
8ddJ
!!linebreak:original
=
8cc#L
8bJ
8aL
8f#J
16eKL
8.c#J
=
8eL
8f#J
8aL
8cc#J
8eeL
8cc#J
=
16ddLL
16cc#J
8bJ
8cc#L
8aJ
8g#L
8eJ
=
8cc#L
8bJ
4.a
8b
=||
8cc#L
8ddJ
16eeLL
16ff#J
8eeJ
8cc#L
8eeJ
=
8aaL
8eeJ
8gg#L
8ddJ
4ff#
!!linebreak:original
=
8gg#L
8ff#J
16eeLL
16ff#J
8eeJ
8ddL
8bJ
=
8g#L
8bJ
8aL
8c#J
8eL
8aJ
=
8cc#L
8ddJ
16eeLL
16ff#J
8eeJ
8cc#L
8eeJ
=
8aaL
8eeJ
8ff#L
8ddJ
8bL
8aaJ
=
8gg#L
8ff#J
8eeL
8dd#XJ
8ff#L
8ddnJ
=
8bL
8g#J
2a
!!linebreak:original
=||
8cc#L
8ddJ
16eeLL
16ff#J
8eeJ
8cc#L
8eeJ
=
8aaL
8eeJ
8gg#L
8ddJ
4ff#
=
8gg#L
8ff#J
16eeLL
16ff#J
8eeJ
8ddL
8bJ
=
8g#L
8bJ
8aL
8c#J
8eL
8aJ
=
8cc#L
8ddJ
16eeLL
16ff#J
8eeJ
8cc#L
8eeJ
=
8aaL
8eeJ
8ff#L
8ddJ
8bL
8aaJ
!!linebreak:original
=
8gg#L
8ff#J
8eeL
8dd#XJ
8ff#L
8ddnJ
=
8bL
8g#J
2a
=||
*-
